X:1
% A: A-Area
% B: B-Book
C: Culebr\'on Timbal
% D: Territorio
% G: G-Group
% H: H-History
% N: N-Notes
% O: O-Origin
% S: S-Source
T:Ayala y el 82
% Z: Z-Transcription note
M:4/4
L:1/4
Q:1/4=100
% C:El colectivero fantasma
K:G
V:1 name="Alto"
%%MIDI program 65
V:2 name="Tenor 1"
%%MIDI program 65
V:3 name="Tenor 2"
%%MIDI program 65
% 
[V:1] D//E/D// E/D//E//- E/C/ B, | D//E/D// E/D//E//- E/G/ C |
[V:2] A,//B,/A,// B,/A,//B,//- B,/G,/ F, | A,//B,/A,// B,/A,//B,//- B,/D/ G,|
[V:3] D,//E,/D,// E,/D,//E,//- E,/C,/ B,, | D,//E,/D,// E,/D,//E,//- E,/G,/ C, |
%
[V:1] D//E/D// E/D//E//- E/C/ B, | D//E/D// E/D//E//- E/G/ C |:
[V:2] A,//B,/A,// B,/A,//B,//- B,/G,/ F, | A,//B,/A,// B,/A,//B,//- B,/D/ G,|:
[V:3] D,//E,/D,// E,/D,//E,//- E,/C,/ B,, | D,//E,/D,// E,/D,//E,//- E,/G,/ C, |:
% Measure 5
[V:1] z// B/B/B/B/B/B/ (B//_B//=B// | c4) |
[V:2] z// E/E/E/E/E/E/ (E//=F//^F// | G4)|
[V:3] z// B,/B,/B,/B,/B,/B,/ (B,//_B,//=B,// | C4) |
%
[V:1] z// B/B/B/B/B/B/ (B//_B//=B// |1 _B4):|2
[V:2] z// E/E/E/E/E/E/ (E//=F//^F// |1 E4):|2
[V:3] z// B,/B,/B,/B,/B,/B,/ (B,//_B,//=B,// |1 _B,4) :|2
% Measure 9
[V:1] !fp! !crescendo(!_B4!crescendo)! || =B z z2|
[V:2] !fp! !crescendo(!E4!crescendo)! || E z z2 |
[V:3] !fp! !crescendo(!_B,4!crescendo)!  || =B, z z2 | 
%
[V:1] Z7||
[V:2] Z7||
[V:3] Z7||
% Measure 18
[V:1] z E z E | E/G/ F/E/ ^D2| z E z E | E/G/ F/E/ ^D2|    
[V:2] z B, z B, | G,/B,/ A,/G,/ C2 | z B, z B,  | G,/B,/ A,/G,/ C2 |
[V:3] z E, z E, | E,/G,/ F,/E,/ ^D,2| z E, z E, | E,/G,/ F,/E,/ ^D,2|    
% Measure 22
[V:1] z E z E | E/G/ F/E/ ^D2|| z/ (B/ _B/=B/ c .B)| z/ (B/ _B/=B/ A .G)|
[V:2] z B, z B, | G,/B,/ A,/G,/ C2 || z/ (G/ F/G/ A .G)|z/ (G/ F/G/ C .B,)|
[V:3] z E, z E, | E,/G,/ F,/E,/ ^D,2|| z/ (B,/ _B,/=B,/ C .B,)| z/ (B,/ _B,/=B,/ A, .G,)|
% Measure 26
[V:1] z/ (G/ F/G/ A/G/ F/G/| A/G/ F/E/ ^D3/) (D//E// |
[V:2] z/ (B,/ ^A,/B,/ C/B,/ A,/B,/| C/B,/ A,/G,/ F,3/) (F,//G,// |
[V:3] z/ (G,/ F,/G,/ A,/G,/ F,/G,/| A,/G,/ F,/E,/ ^D,3/) (D,//E,// | 
% Measure 28
[V:1] F3/ F//G// A3/ A//B//| c3/ c//B// A .G)|
[V:2] A,3/ A,//B,// C3/ C//D//| E3/ E//D// C .B,)|
[V:3] F,3/ F,//G,// A,3/ A,//B,//| C3/ C//B,// A, .G,)|
% Measure 30
[V:1] F E ^D E | ^D3- D/(C//D//     || .E) z z2|
[V:2] A, G, F, G, | F,3- F,/(E,//F,//  || .G,) z z2|
[V:3] F, E, ^D, E, | ^D,3- D,/(C,//D,// || .E,) z z2        |
% Measure 33
[V:1] Z7||
[V:2] Z7||
[V:3] Z7||
% Measure 40
[V:1] z E z E | E/G/ F/E/ ^D2| z E z E | E/G/ F/E/ ^D2|    
[V:2] z B, z B, | G,/B,/ A,/G,/ C2 | z B, z B,  | G,/B,/ A,/G,/ C2 |
[V:3] z E, z E, | E,/G,/ F,/E,/ ^D,2| z E, z E, | E,/G,/ F,/E,/ ^D,2|    
% Measure 44
[V:1] z E z E | E/G/ F/E/ ^D2|: 
[V:2] z B, z B, | G,/B,/ A,/G,/ C2 |:
[V:3] z E, z E, | E,/G,/ F,/E,/ ^D,2|:
% Measure 46
[V:1] z// B/B/B/B/B/B/ (B//_B//=B// | c4) |
[V:2] z// E/E/E/E/E/E/ (E//=F//^F// | G4)|
[V:3] z// B,/B,/B,/B,/B,/B,/ (B,//_B,//=B,// | C4) |
%
[V:1] z// B/B/B/B/B/B/ (B//_B//=B// |1 _B4):|2
[V:2] z// E/E/E/E/E/E/ (E//=F//^F// |1 E4):|2
[V:3] z// B,/B,/B,/B,/B,/B,/ (B,//_B,//=B,// |1 _B,4) :|2
% Measure 50
[V:1] !fp! !crescendo(!_B4!crescendo)! || =B z z2|
[V:2] !fp! !crescendo(!E4!crescendo)! || E z z2 |
[V:3] !fp! !crescendo(!_B,4!crescendo)!  || =B, z z2 | 
%
[V:1] Z7||
[V:2] Z7||
[V:3] Z7||
% Measure 58
[V:1] z E z E | E/G/ F/E/ ^D2| z E z E | E/G/ F/E/ ^D2|    
[V:2] z B, z B, | G,/B,/ A,/G,/ C2 | z B, z B,  | G,/B,/ A,/G,/ C2 |
[V:3] z E, z E, | E,/G,/ F,/E,/ ^D,2| z E, z E, | E,/G,/ F,/E,/ ^D,2|    
% Measure 62
[V:1] z E z E | E/G/ F/E/ ^D2| E z z2| z4|
[V:2] z B, z B, | G,/B,/ A,/G,/ C2 | B, z z2| z4|
[V:3] z E, z E, | E,/G,/ F,/E,/ ^D,2| E, z z2| z4|
% Measure 66
[V:1] D//E/D// E/D//E//- E/C/ B, | D//E/D// E/D//E//- E/G/ C |
[V:2] A,//B,/A,// B,/A,//B,//- B,/G,/ F, | A,//B,/A,// B,/A,//B,//- B,/D/ G,|
[V:3] D,//E,/D,// E,/D,//E,//- E,/C,/ B,, | D,//E,/D,// E,/D,//E,//- E,/G,/ C, |
%
[V:1] D//E/D// E/D//E//- E/C/ B, | D//E/D// E/D//E//- E/G/ C ||
[V:2] A,//B,/A,// B,/A,//B,//- B,/G,/ F, | A,//B,/A,// B,/A,//B,//- B,/D/ G,||
[V:3] D,//E,/D,// E,/D,//E,//- E,/C,/ B,, | D,//E,/D,// E,/D,//E,//- E,/G,/ C, ||
% Measure 70
[V:1] Z4 |
[V:2] Z4 |
[V:3] Z4 |
% Measure 74
[V:1] z E z E | E/G/ F/E/ ^D2-| HD3 B,| kE z3|]
[V:2] z B, z B, | G,/B,/ A,/G,/ C2- | HC3 B, | kE z3|]
[V:3] z E, z E, | E,/G,/ F,/E,/ ^D,2-| HD,3 B,| kE z3|]
